X:1
T:A Major James P. Carrell, 1821
T:T. Wood, ± 1815
T:The Incarnation
T:Transcribed from Songs of Zion, 1821
%%score [ 1 2 3 ]
L:1/8
Q:1/4=90
M:2/4
K:A
V:1 treble nm="Voice" snm="Tr."
V:2 treble-8 nm="T." snm="T."
V:3 bass nm="B." snm="B."
V:1
"^Treble or Tenor Solo""^Long had the voice of pro–phe–cy ___  foretold   Mes–si – ah's ______ advent,  the  in–car – na  –  tion   of _____   the   Son       of        God." A2 AB | %1
 c3 B | AB cd | e>d c>d | e4 | e2 e2 | d/>e/f/d/ cd | B2 B>e | cB cd | e>f ef/g/ | a2 (3fed | %11
 (c2 B2) | A4 || z2 AB | c3 d | e2 e2 | e4- | e2 f2 | e3 d | c4 | z2 e2 | e2 e2 | e3 f | ed cB | %24
 A2 A z | d2 d2 | c3 e | ea f2 | e3 d | c4 | z2 f2 | fd cd | e4 | z4 | z4 | z4 | z2 c2 | c2 d2 | %38
 c4 | z2 A2 | A2 E2 | Ad e c/B/ | c3 B | A2 G2 | A4 | z4 | z4 | z4 | z2 A>B | c>de/d/ c/d/ | %50
 ed cd | e2 e z | ed cB | A3 G | A2 E2 | c2 e2 | (3fed c2 | B2 AG | A4 | e3 e | e2 e2 | dc B2 | %62
 c4- | c2 e2 | A3 A | A2 G2 | A4 | z4 | z4 | z4 | z4 | z4 | z2 z A | Bd cA | G2 G z | e2 ed | %76
 c2 dc/d/ | e3 e | e2 e2 | c4 | A2 E2 | F2 d2 | c4 | d4 | ec eA | (B2 A2) | G4 | A4 | z4 | z4 | %90
 z4 | z4 | A4 | c3 B | A>A G>G | A4 | e4 | e4 | c3 d | e>f e>d | c4- | c2 z2 | c2 cc | B4 | A2 GG | %105
 A4 | df ee | ed cB | c4 | z4 | z4 | z2"^Go forth!" e2 | c4 | z4 | z4 | z4 | %116
 z2 z"^from  conquering  to    con –" e | e>c BA | G4 | A4 |: z2 c>d | e4 | c2 (e>d | c2) B2 | %124
 AG FE | A2 A z | e3 e | f2 e2 | (A2 B)d | c2 B2 | c4 | z2 e2 | e2 e2 | f3 e | e2 e z | e2 e2 | %136
 f2 d2 | ed cB | A2 G2 | A4 :| z4 |: %141
[M:4/4]"^Hal–le–lu–jah!                               Glo– ry   to  our  conquering  King!" e3 e e2 c2 | %142
 z8 | e2 e2 cA F2 | A4 TG4 | A8 :| %146
V:2
 z4 | z4 | z4 | z4 | z4 | z4 | z4 | z4 | z4 | z4 | z4 | z4 | z4 || %13
 z2"^Un– to  us  a  child  is   born,       a   son  is  given.        On  him  shall  lie  the  rule  of  nations,        and his name _____  shall    be    the" cd | %14
 e3 d | c2 B2 | (c4 | c2) dc | B3 B | A4 | z2 E2 | A2 B2 | c3 B | AB cd | e2 e z | f2 f2 | %26
 df/e/c/B/A | e2 dc | %28
"^wonderful,          the     coun–se  –  lor,                                           The mighty God,     the  ev –er  –  las             –       ting  sire, the prince of peace." B3 B | %29
 A4 | z2 dc | BA B2 | A4 | z4 | z4 | z4 | z2 e2 | e2 f2 | e4 | z2 c2 | d2 ed | c/d/c/B/A/B/ c/d/ | %42
 e3 d | c2 B2 | A4 | z4 | z4 | z4 | %48
 z2"^Shall     still ________  in  –  crease ____   for–ev – er.     He     shall     sit    on     Da–vid's  throne and king–dom" c>d | %49
 e>fc/B/A | Ed cB | A2 A z | E2 F>G | A3 d | cB cd | e2 AB | c2 e2 | %57
"^ev–er–more.  He  shall   sit   on    Da – vid's  throne ____  and   king–dom   ev–er–more.              With judgment and with justice, he shall" c2 B2 | %58
 A4 | A3 E | AB c2 | BA Bc | e4- | e2 ce | (f2 e)d | c2 B2 | A4 | z4 | z2 A2 | B>B BB | c2 c2 | %71
 BA Bc | %72
"^sway  his  righteous   scepter:       All  shall  he or – der,         all           es  – ta – blish  firm.  I, the Lord, have said, and will ___   per–form" A3 c | %73
 dB cd | e2 e z | E2 AB | c>B A2 | c3 e | c>d B2 | A4 | e2 e2 | de f2 | e4 | d4 | ce cA | (d2 c2) | %86
"^my  word.              Em-man-u-el,  hail!  hail!  hail thou King of glo–ry,  hail!  hail!  Hail thou King of  glo – ry,    hail!       Hail to our world!" B4 | %87
 A4 | z4 | z2 E2 | A2 Bd | (c2 e2) | c4 | e3 d | ce/d/ c>B | A4 | B4 | c4 | e3 d | ce/d/ c>B | %100
 A4- | A2 z2 | e2 ee | f4 | %104
"^Hail to our hearts! Matchless in majesty and might;                                         Go forth from conquering to conquer, from conquering to con –" f2 ec | %105
 e4 | dc BA | BB cd | e4 | z4 | z4 | z4 | z4 | z2 f2 | e3 c | dc BA | e2 ed | c>A d/B/c | %118
 (B/A/ B3) | %119
"^–quer.          Ride  on,    Ride  on, ____  O    King     Mes–si–ah,       to   possess  the  sove  –   reign rule of  all.        Ride   on,  O    King ___ of" A4 |: %120
 z2 A>B | c4 | e2 (c>B | A2) E2 | AG FE | A2 A z | c3 A | d2 c2 | c>dB/G/B | A2 G2 | A4 | z2 c>d | %132
 e2 B2 | AG FE | %134
"^glo–ry,      to  pos–sess   the         sove–reign  rule  of  all.                                                 Hal–le–lu–jah!    Glo– ry  to  our  conquering  King!" A2 A z | %135
 c2 A2 | d2 Bc/d/ | cd ed | c2 B2 | A4 :| z4 |:[M:4/4] z8 | A3 A BA B2 | cB cd e2 fd | c4 TB4 | %145
 A8 :| %146
V:3
 z4 | z4 | z4 | z4 | z4 | z4 | z4 | z4 | z4 | z4 | z4 | z4 | z4 || z2 A,D, | C,3 D, | E,2 E,2 | %16
 A,4- | A,2 D,2 | E,3 E, | A,,4 | z2 E,2 | A,2 G,2 | A,3 F, | (E,2 A,)B, | C2 C z | B,2 B,2 | %26
 A,3 A, | A,2 D,2 | E,3 E, | C,4 | z4 | z4 | z4 | z2"^The mighty God," E,2 | C,2 E,2 | A,4 | %36
 z2 A,2 | A,2 D,2 | A,4 | z2 A,2 | D,2 B,,2 | C,>D, E,E, | A,3 G, | A,2 E,2 | A,,4 | %45
 z2"^His government and peace" A,,2 | C,>D, E,E, | E,4 | z2 C>B, | (A, F,2) C, | E,>F,E,/F,/G, | %51
 A,2 A, z | A,,2 A,,2 | D,3 D, | C,D, E,2 | A,2 A,2 | A,2 C,2 | C,2 D,E, | A,,4 | z4 | z4 | z4 | %62
 z4 | z2 A,2 | D,3 D, | F,2 G,2 | D,4 | z4 | z2 A,2 | E,>E, E,E, | C,2 C,D, | E,2 E,2 | A,,3 A, | %73
 B,G, A,D, | E,2 E, z | E,2 A,G, | A,2 A,2 | CB, A,C, | E,2 E,2 | A,,4 | A,2 E,2 | D,2 D,2 | A,4 | %83
 B,4 | A,3 A, | D,4 | E,4 | A,,4 | z4 | z2 E,2 | D,2 D,D, | E,4 | A,4 | A,3 G, | A,>D, C,>E, | %95
 A,4 | E,4 | C,4 | A,3 G, | A,>D, E,>E, | A,,4- | A,,2 z2 | C2 A,A, | B,4 | A,2 E,E, | A,4 | %106
 F,2 G,A, | G,E, A,D, | E,4 | z2"^Go forth!" A,2 | A,4 | z4 | z4 | z2 A,2 | A,3 A, | B,A, G,F, | %116
 E,2 A,E, | A,>A, D,C, | E,4 | A,,4 |: z4 | z4 | E,2 (A,>B, | C2) B,2 | A,G, F,E, | A,2 A, z | %126
 A,3 A, | B,2 A,2 | F,D, C,D, | E,2 E,2 | A,,4 | z2 A,2 | E,2 E,2 | C,3 E, | %134
"^_________________________________________________________________\nEdited by B. C. Johnston, 2017\n   1. Measure 12: Slur added to accomodate text.\n   2. Measures 58 & 92 guessed at: covered by fold in scanned pages,\n   3. Meaasures 96-98: words have too many \nHail!\ns.\n   4. Measure 119, \nTenor\n: notes tied to fit words.\n   5. Measure 143, Tenor: last note changed from eighth-note to quarter-note." A,2 A, z | %135
 C2 C2 | B,A, G,B, | A,3 D, | C,2 E,2 | A,,4 :| z4 |:[M:4/4] z8 | z8 | A,2 A,2 A,2 C,D, | %144
 E,4 TE,4 | A,,8 :| %146

